X:45
T:Mary McDonagh's Favorite
B:Terry "Cuz" Teahan "Sliabh Luachra on Parade" 1980
Z:Patrick Cavanagh
M:12/8
L:1/8
R:Slide
K:D
| B3 cBA B2A F2E | D2F A2E D2F A3 | 
B3 cBA B2A F2E | D2F A2F E3 E3 :| 
| B2e e2f g2f e2d | Bcd A2d B2d A3 | 
B2e e2f g2f e2c | d2f a2f e3 e3 :|| 

